X: 1
T: Angus MacEachern's
O: trad
S: Jerry Holland, who said he learned it years ago in Boston from Angus MacEachern.
R: hornpipe
Z: 2008 John Chambers <jc@trillian.mit.edu>
M: C|
L: 1/8
K: G
Bc \
| "G"dgfe d2Bc | dgfe d2Bc \
|1,3 dBdg "C"ec~c2 | "G"dBGB "D7"A2 \
:|2,4 "G"dBdg "D7"ecAF | "G"G2B2 G2 :|
|: dc \
| "G"BGDG BGDG | BGDG TB2AB \
|1,3 "D7"cAFA cAFA | cAFA "C"c2 \
:|2,4 "C"cBcd "D7"ecAF | "G"G2B2 G2 :|
